icon/zenbrowser.svg

<?xml version="1.0" encoding="UTF-8" standalone="no"?>
<svg
   width="320"
   height="320"
   viewBox="0 0 64 64"
   fill="none"
   version="1.1"
   id="svg3"
   sodipodi:docname="svgexport-13.svg"
   inkscape:version="1.4 (86a8ad7, 2024-10-11)"
   xmlns:inkscape="http://www.inkscape.org/namespaces/inkscape"
   xmlns:sodipodi="http://sodipodi.sourceforge.net/DTD/sodipodi-0.dtd"
   xmlns="http://www.w3.org/2000/svg"
   xmlns:svg="http://www.w3.org/2000/svg">
  <defs
     id="defs3" />
  <sodipodi:namedview
     id="namedview3"
     pagecolor="#ffffff"
     bordercolor="#000000"
     borderopacity="0.25"
     inkscape:showpageshadow="2"
     inkscape:pageopacity="0.0"
     inkscape:pagecheckerboard="0"
     inkscape:deskcolor="#d1d1d1"
     inkscape:zoom="2.521875"
     inkscape:cx="160"
     inkscape:cy="160"
     inkscape:window-width="1920"
     inkscape:window-height="1009"
     inkscape:window-x="-8"
     inkscape:window-y="-8"
     inkscape:window-maximized="1"
     inkscape:current-layer="svg3" />
  <path
     fill-rule="evenodd"
     clip-rule="evenodd"
     d="M32 44.3077C38.7974 44.3077 44.3077 38.7974 44.3077 32C44.3077 25.2027 38.7974 19.6923 32 19.6923C25.2027 19.6923 19.6923 25.2027 19.6923 32C19.6923 38.7974 25.2027 44.3077 32 44.3077ZM41.8462 32C41.8462 37.4379 37.4379 41.8462 32 41.8462C26.5621 41.8462 22.1538 37.4379 22.1538 32C22.1538 26.5621 26.5621 22.1538 32 22.1538C37.4379 22.1538 41.8462 26.5621 41.8462 32Z"
     fill="#F2F0E3"
     id="path1"
     style="fill:#f47152;fill-opacity:1" />
  <path
     fill-rule="evenodd"
     clip-rule="evenodd"
     d="M53.3333 32C53.3333 43.7821 43.7821 53.3333 32 53.3333C20.2179 53.3333 10.6667 43.7821 10.6667 32C10.6667 20.2179 20.2179 10.6667 32 10.6667C43.7821 10.6667 53.3333 20.2179 53.3333 32ZM32 49.2308C41.5163 49.2308 49.2308 41.5163 49.2308 32C49.2308 22.4837 41.5163 14.7692 32 14.7692C22.4837 14.7692 14.7692 22.4837 14.7692 32C14.7692 41.5163 22.4837 49.2308 32 49.2308Z"
     fill="#F2F0E3"
     id="path2"
     style="fill:#f47152;fill-opacity:1" />
  <path
     fill-rule="evenodd"
     clip-rule="evenodd"
     d="M64 32C64 49.6731 49.6731 64 32 64C14.3269 64 0 49.6731 0 32C0 14.3269 14.3269 0 32 0C49.6731 0 64 14.3269 64 32ZM32 58.2564C46.501 58.2564 58.2564 46.501 58.2564 32C58.2564 17.499 46.501 5.74359 32 5.74359C17.499 5.74359 5.74359 17.499 5.74359 32C5.74359 46.501 17.499 58.2564 32 58.2564Z"
     fill="#F2F0E3"
     id="path3"
     style="fill:#f47152;fill-opacity:1" />
</svg>

<svg xmlns="http://www.w3.org/2000/svg" width="320" height="320" fill="none" viewBox="0 0 64 64"><path fill="#f2f0e3" fill-rule="evenodd" d="M32 44.308c6.797 0 12.308-5.51 12.308-12.308 0-6.797-5.51-12.308-12.308-12.308-6.797 0-12.308 5.51-12.308 12.308 0 6.797 5.51 12.308 12.308 12.308M41.846 32c0 5.438-4.408 9.846-9.846 9.846S22.154 37.438 22.154 32s4.408-9.846 9.846-9.846 9.846 4.408 9.846 9.846" clip-rule="evenodd" style="fill:#f47152;fill-opacity:1"/><path fill="#f2f0e3" fill-rule="evenodd" d="M53.333 32c0 11.782-9.55 21.333-21.333 21.333S10.667 43.783 10.667 32 20.217 10.667 32 10.667 53.333 20.217 53.333 32M32 49.23c9.516 0 17.23-7.714 17.23-17.23S41.517 14.77 32 14.77 14.77 22.483 14.77 32 22.483 49.23 32 49.23" clip-rule="evenodd" style="fill:#f47152;fill-opacity:1"/><path fill="#f2f0e3" fill-rule="evenodd" d="M64 32c0 17.673-14.327 32-32 32S0 49.673 0 32 14.327 0 32 0s32 14.327 32 32M32 58.256c14.501 0 26.256-11.755 26.256-26.256S46.501 5.744 32 5.744 5.744 17.499 5.744 32 17.499 58.256 32 58.256" clip-rule="evenodd" style="fill:#f47152;fill-opacity:1"/></svg>
